X:1
T:No Peaceful Rest
T:No Peaceful Rest
T:Thomas S. Cobb
T:Franklin Lycurgus Eiland, 1906
T:Public Domain Courtesy of the Cyber Hymnal™
T:Public Domain Courtesy of the Cyber Hymnal™
C:Thomas S. Cobb
Z:Public Domain
Z:Courtesy of the Cyber Hymnal™
%%score ( 1 2 ) ( 3 4 )
L:1/8
Q:1/4=105
M:4/4
K:Db
V:1 treble 
V:2 treble 
V:3 bass 
V:4 bass 
V:1
 D[DE] | [DF]2 [FA]2 [FA]2 [FA][GB] | [FA]2 [DF]2 D2 [FA]2 | [GB]2 [Gc][Gd] [=Ge][Gd] [GB]2 | %4
w: 1.~Are you|seek- ing heav- en- ly,|peace- ful rest? Look|on- ly to Je- sus, dear|
w: 2.~Go ye|in- to it, and this|glo- ry claim— Make|now for this boun- ty thy|
w: 3.~There, this|peace- ful rest is a-|wait- ing thee— Sad|soul, wilt thou let it be|
 A6 AA | [Af]2 [Af]2 [Fd]2 ([Fd][Fd]) | (ed)[Gc][GB] [FA]2 A2 | [GB]2 [=Ge][Gd] [Ac][Ac] [_Gc]2 | %8
w: one; It is|there, and on- ly *|there, * it is found, Out-|side of His king- dom there’s|
w: run— Haste a-|way, it there to *|ob- * tain, for sure— Out-|side of His king- dom there’s|
w: won? Seek thou,|it, thro’ Je- sus, *|who * says, “Come in,” Out-|side of His king- dom there’s|
 [Fd]6 ||"^Refrain" [FA]2 | d6 ([FA][DF]) | ([DE]2 [=DF]2 [EG]2) [FA]2 | %12
w: none!|No|peace- ful *|rest, * * out-|
w: none!||||
w: none!||||
 [GB]2 [Gc][Gd] [=Ge][Gd] [GB]2 | A6 A2 | f6 ([Ge][Fd]) | !fermata!B6 !fermata![Ad]2 | %16
w: side of the king- dom of|God! None|for thy *|breast, out-|
w: ||||
w: ||||
 (cB)[=Ge][Gd] [Ac][Ac] [_Gc]2 | [Fd]6 |] %18
w: side * of the king- dom of|God!|
w: ||
w: ||
V:2
 D x | x8 | x4 D2 x2 | x8 | A6 AA | x8 | G2 x3 A2 x | x8 | x6 || x2 | (F2 F2 F2) x2 | x8 | x8 | %13
 A6 A2 | (A2 A2 A2) x2 | (G2 A2 =G2) x2 | G2 x6 | x6 |] %18
V:3
 [D,F,][D,G,] | [D,A,]2 [D,D]2 [D,D]2 [D,D][D,D] | [D,D]2 [D,A,]2 [D,F,]2 [D,D]2 | %3
w: ~ ~|~ ~ ~ ~ ~|~ ~ ~ ~|
 [G,D]2 [G,B,][G,B,] [E,B,][E,B,] [E,D]2 | [A,,A,C]6 [A,C][A,C] | %5
w: ~ ~ ~ ~ ~ ~|~ ~ ~|
 [D,D]2 [D,D]2 [D,A,]2 ([D,A,][D,A,]) | B,2 [B,,B,][C,A,] [D,A,]2 [F,D]2 | %7
w: ~ ~ ~ ~ *|~ ~ ~ ~ ~|
 [G,D]2 [E,D][E,B,] A,A, [A,,A,]2 | [D,A,]6 || [D,D]2 | [D,A,]2 [D,A,]2 [D,A,]2 ([D,D][F,A,]) | %11
w: ~ ~ ~ ~ ~ ~|~|No|peace- ful rest, no *|
 [G,B,]2 [F,B,]2 [E,B,]2 [D,D]2 | [G,D]2 [G,B,][G,B,] [E,B,][E,B,] [E,D]2 | [A,,A,C]6 [A,C]2 | %14
w: peace- ful rest, ~|~ ~ ~ ~ ~ ~|~ None|
 [D,D]2 [D,D]2 [D,D]2 [D,D]2 | [G,D]2 [F,=D]2 [E,E]2 [F,_D]2 | [G,D]2 [E,D][E,B,] A,A, [A,,A,]2 | %17
w: for thy breast, none|for thy breast, *||
 [D,A,]6 |] %18
w: |
V:4
 x2 | x8 | x8 | x8 | x8 | x8 | (G,,A,,) x6 | x4 A,A, x2 | x6 || x2 | x8 | x8 | x8 | x8 | x8 | x8 | %16
 x4 A,A, x2 | x6 |] %18

